X: 744011
T: Highland Cathedral from hicall.mid
M: 4/4
L: 1/8
Q:1/4=80
K:Eb % 3 flats
Q:1/4=60
%K:HP
R:March
U: R = ///
U: r = //
U: V = !accent!
V:M gstem=up stem=down name="Melody" sname="Melody"
V:H gstem=up stem=down name="Harmony" sname="Harmony"
V:C gstem=up stem=down name="C-Harmony" sname="C-Harmony"
V:S gstem=up stem=down dyn=up stafflines=1 clef=perc middle=G name="Snare" sname="Snare"" sname="Snare"
V:B gstem=up stem=down clef=none dyn=up name="Bass"
V:T gstem=up stem=down clef=none dyn=up name="Tenor"
I:MIDI=program 110
%%MIDI gracedivider 40
I:linebreak $
% %score {M S}
%%MIDI program 109 #bagpipes
%%MIDI vol 100
% %landscape off
V:1 name="Flute" sname="Flute"
%%MIDI program 73
b8| \
c'/2a/2b/2e'/2 d'/2b/2g/2f/2 b4| \
e'6 d'c'| \
b/2g/2b/2d'/2 f'/2c'/2=a/2f/2 b4|
f'4 e'4| \
c'/2a/2c'/2e'/2 d'/2b/2a/2f/2 e4| \
f'3e'/2c'/2 b4| \
a/2f/2a/2c'/2 d'/2b/2d'/2f'/2 e'4|
b8| \
c'/2a/2b/2e'/2 d'/2b/2g/2f/2 b4| \
e'6 d'c'| \
b/2g/2b/2d'/2 f'/2c'/2=a/2f/2 b4|
f'4 e'4| \
c'/2a/2c'/2e'/2 d'/2b/2a/2f/2 e4| \
f'3e'/2c'/2 b4| \
a/2f/2a/2c'/2 d'/2b/2d'/2f'/2 e'4|
z8| \
z8| \
z8| \
z8|
z8| \
z8| \
z8| \
b8-|
b8| \
b8| \
c'/2a/2b/2e'/2 d'/2b/2g/2f/2 b4| \
e'6 d'c'|
b/2g/2b/2d'/2 f'/2c'/2=a/2f/2 b4| \
f'4 e'4| \
c'/2a/2c'/2e'/2 d'/2b/2a/2f/2 e4| \
f'3e'/2c'/2 b4|
a/2f/2a/2c'/2 d'/2b/2d'/2f'/2 e'4| \
b8| \
e'8|
V:2 name="Clarinet" sname="Clarinet"
%%MIDI program 71
[eB-G-]3[fB-G-]/2[gBG-]/2 [fdG-][ecG-] [B-BG-][eBG]| \
[f-ec]2 [fd-B-][gdB] [g-fd]2 [gec]2| \
[g-ec][g-fd] [ge_d-][afd-]/2[bgd]/2 [aac-][gec] [f=dG-][ecG]| \
[f-BF-][f-dF-] [fc-F-][gcF] [B-EC][B-GE] [BFD]2|
[c-F-C]2 [cF-D-][dF-D-]/2[eFD]/2 [eB-E-][BBE] [ecG][gec]| \
[b-ec]2 [bd-B-][adB] [geB]4| \
[f-cF-][f-BF] [fAF][gc-A-]/2[acA]/2 [geB][eBG] [BGE][eBG]| \
[f-cA][f-ec] [fd-B-][edB] [e-cA][e-AF] [eBG]2|
[eB-G-]3[fB-G-]/2[gBG-]/2 [fdG-][ecG-] [B-BG-][eBG]| \
[f-ec]2 [fd-B-][gdB] [g-fd]2 [gec]2| \
[g-ec][g-fd] [ge_d-][afd-]/2[bgd]/2 [aac-][gec] [f=dG-][ecG]| \
[f-BF-][f-dF-] [fc-F-][gcF] [B-EC][B-GE] [BFD]2|
[c-F-C]2 [cF-D-][dF-D-]/2[eFD]/2 [eB-E-][BBE] [ecG][gec]| \
[b-ec]2 [bd-B-][adB] [geB]4| \
[f-cF-][f-BF] [fAF][gc-A-]/2[acA]/2 [geB][eBG] [BGE][eBG]| \
[f-cA][f-ec] [fd-B-][edB] [e-cA][e-AF] [eBG]2|
[BBB][FFF] [BBB][ddd] [fff][ccc] [=AAA][FFF]| \
[GGG][DDD] [GGG][BBB] [ddd][BBB] [AAA][FFF]| \
[GGG][BBB] [eee][ggg] [fff][eee] [ccc][=AAA]| \
[BBB][FFF] [ddd][BBB] [fff]4|
[BBB][FFF] [BBB][ddd] [fff][ccc] [=AAA][FFF]| \
[GGG][DDD] [GGG][BBB] [ddd][BBB] [AAA][FFF]| \
[GGG][BBB] [eee][ggg] [fff][eee] [ccc][=AAA]| \
[B-B-B-]8|
[BBB]8| \
[eB-G-]3[fB-G-]/2[gBG-]/2 [fdG-][ecG-] [B-BG-][eBG]| \
[f-ec]2 [fd-B-][gdB] [g-fd]2 [gec]2| \
[g-ec][g-fd] [ge_d-][afd-]/2[bgd]/2 [aac-][gec] [f=dG-][ecG]|
[f-BF-][f-dF-] [fc-F-][gcF] [B-EC][B-GE] [BFD]2| \
[c-F-C]2 [cF-D-][dF-D-]/2[eFD]/2 [eB-E-][BBE] [ecG][gec]| \
[b-ec]2 [bd-B-][adB] [geB]4| \
[f-cF-][f-BF] [fAF][gc-A-]/2[acA]/2 [geB][eBG] [BGE][eBG]|
[f-cA][f-ec] [fd-B-][edB] [e-cA][e-AF] [eBG]2| \
[BBB]8| \
[geB]8|
V:3 name="Alto Sax" sname="Alto Sax"
%%MIDI program 65
[EB,-]3[FB,-]/2[GB,]/2 [FG,-][EG,-] [B,G,-][EG,]| \
[FA,-]3[GA,] [GB,]4| \
[G-E][G-D] [GE][AF]/2[BG]/2 [AE-][GE] [FG,-][EG,]| \
[F-B,][F-D] [FC-][GC] [B-E][B-G] [BF]2|
[CC]3[DD]/2[EE]/2 [EE][B,A,] [EC][GE]| \
[B-E]2 [BD-][AD] [GE]4| \
[F-C][F-B,] [FA,][GC-]/2[AC]/2 [GB,-][EB,] [B,G,][EB,]| \
[F-C][F-E] [FD-][ED] [E-C][E-A,] [EB,]2|
[EB,-]3[FB,-]/2[GB,]/2 [FG,-][EG,-] [B,G,-][EG,]| \
[FA,-]3[GA,] [GB,]4| \
[G-E][G-D] [GE][AF]/2[BG]/2 [AE-][GE] [FG,-][EG,]| \
[F-B,][F-D] [FC-][GC] [B-E][B-G] [BF]2|
[CC]3[DD]/2[EE]/2 [EE][B,A,] [EC][GE]| \
[B-E]2 [BD-][AD] [GE]4| \
[F-C][F-B,] [FA,][GC-]/2[AC]/2 [GB,-][EB,] [B,G,][EB,]| \
[F-C][F-E] [FD-][ED] [E-C][E-A,] [EB,]2|
[DB,]/2z/2[DB,]2[DB,]/2z/2 [FC]/2z/2[FC]2[FC]/2z/2| \
[GD]/2z/2[GD]2[GD]/2z/2 [=AF]/2z/2[AF]2[AF]/2z/2| \
[GE]/2z/2[GE]2[GE]/2z/2 [E-B,]2 [EC]2| \
[DB,]2 [FD]2 [GE-]2 [FE]2|
[DB,]/2z/2[DB,]2[DB,]/2z/2 [FC]/2z/2[FC]2[FC]/2z/2| \
[GD]/2z/2[GD]2[GD]/2z/2 [=AF]/2z/2[AF]2[AF]/2z/2| \
[GE]/2z/2[GE]2[GE]/2z/2 [E-B,]2 [EC]2| \
[DB,][B,B,] [DD][B,B,] [_G,G,][CC] [EE][CC]|
[G,F,][_DD] [=EE][DD] [A,A,][=DD] [FF][DD]| \
[EB,-]3[FB,-]/2[GB,]/2 [FG,-][EG,-] [B,G,-][EG,]| \
[FA,-]3[GA,] [GB,]4| \
[G-E][G-D] [GE][AF]/2[BG]/2 [AE-][GE] [FG,-][EG,]|
[F-B,][F-D] [FC-][GC] [B-E][B-G] [BF]2| \
[CC]3[DD]/2[EE]/2 [EE][B,A,] [EC][GE]| \
[B-E]2 [BD-][AD] [GE]4| \
[F-C][F-B,] [FA,][GC-]/2[AC]/2 [GB,-][EB,] [B,G,][EB,]|
[F-C][F-E] [FD-][ED] [E-C][E-A,] [EB,]2| \
[CB,]8| \
[GB,]8|
V:4 name="Tenor Sax" sname="Tenor Sax"
%%MIDI program 66
G,4 DC B,G,| \
A,C B,A, G,4| \
ED _D2 C2 =DC| \
G,B, =A,2 CE D2|
CE DB, EB, G,2| \
A,C DF E4| \
CB, A,C EC G,2| \
A,C B,A, A,F, G,2|
G,4 DC B,G,| \
A,C B,A, G,4| \
ED _D2 C2 =DC| \
G,B, =A,2 CE D2|
CE DB, EB, G,2| \
A,C DF E4| \
CB, A,C EC G,2| \
A,C B,A, A,F, G,2|
F,/2z/2F,2F,/2z/2 G,/2z/2G,2G,/2z/2| \
B,/2z/2B,2B,/2z/2 B,/2z/2B,2B,/2z/2| \
B,/2z/2B,2B,/2z/2 G,2 =A,2| \
F,2 B,2 B,2 =A,2|
F,/2z/2F,2F,/2z/2 F,/2z/2F,2F,/2z/2| \
B,/2z/2B,2B,/2z/2 B,/2z/2B,2B,/2z/2| \
B,/2z/2B,2B,/2z/2 G,2 =A,2| \
F,B, DB, A,C EC|
G,_D =ED A,=D FD| \
G,4 DC B,G,| \
A,C B,A, G,4| \
ED _D2 C2 =DC|
G,B, =A,2 CE D2| \
CE DB, EB, G,2| \
A,C DF E4| \
CB, A,C EC G,2|
A,C B,A, A,F, G,2| \
A,8| \
G,8|
V:5 name="Bari Sax" sname="Bari Sax"
%%MIDI program 67
E,2 D,2 C,2 B,,G,,| \
F,,2 B,,2 E,,3D,| \
C,=B,, _B,,E,, A,,2 C,2| \
F,,4 B,,4|
=A,,2 _A,,2 G,,2 C,2| \
F,,2 B,,=B,, C,2 _B,,2| \
A,,G,, F,,2 B,,4| \
F,,2 B,,2 E,,4|
E,2 D,2 C,2 B,,G,,| \
F,,2 B,,2 E,,3D,| \
C,=B,, _B,,E,, A,,2 C,2| \
F,,4 B,,4|
=A,,2 _A,,2 G,,2 C,2| \
F,,2 B,,=B,, C,2 _B,,2| \
A,,G,, F,,2 B,,4| \
F,,2 B,,2 E,,4|
B,,4 =A,,4| \
G,,4 F,,2 B,,2| \
E,2 D,2 C,2 F,,2| \
B,,2 G,,2 C,2 F,,2|
B,,4 =A,,4| \
G,,4 F,,2 B,,2| \
E,2 D,2 C,2 F,,2| \
B,,8-|
B,,8| \
E,2 D,2 C,2 B,,G,,| \
F,,2 B,,2 E,,3D,| \
C,=B,, _B,,E,, A,,2 C,2|
F,,4 B,,4| \
=A,,2 _A,,2 G,,2 C,2| \
F,,2 B,,=B,, C,2 _B,,2| \
A,,G,, F,,2 B,,4|
F,,2 B,,2 E,,4| \
B,,8| \
E,,8|
V:6 name="Horn in F" sname="Horn in F"
%%MIDI program 60
[EB,B,G,-]4 [FDDG,-][EC-C-G,-] [E-CCG,-][EB,B,G,]| \
[F-ECA,-]2 [FDB,A,]2 [FDB,-G,-]2 [ECB,G,-]2| \
[ECG,-G,-][FDG,-G,] [E-_DB,G,]2 [ECA,A,]2 [F=DG,-G,-][ECG,G,]| \
[E-B,G,G,]2 [EC=A,A,]2 [ECB,-_A,-][GEB,-A,-] [FDB,A,]2|
[F-ECF,-]2 [FDB,F,]2 [E-B,B,E,]2 [ECCG,]2| \
[ECA,-F,]2 [DB,A,-F,][FDA,A,] [ECG,G,]4| \
[C-CF,-F,-][C-B,F,-F,-] [CA,F,F,]2 [EB,G,G,]4| \
[ECA,-F,-]2 [DB,A,F,]2 [E-CCA,][E-A,A,F,] [EB,B,G,]2|
[EB,B,G,-]4 [FDDG,-][EC-C-G,-] [E-CCG,-][EB,B,G,]| \
[F-ECA,-]2 [FDB,A,]2 [FDB,-G,-]2 [ECB,G,-]2| \
[ECG,-G,-][FDG,-G,] [E-_DB,G,]2 [ECA,A,]2 [F=DG,-G,-][ECG,G,]| \
[E-B,G,G,]2 [EC=A,A,]2 [ECB,-_A,-][GEB,-A,-] [FDB,A,]2|
[F-ECF,-]2 [FDB,F,]2 [E-B,B,E,]2 [ECCG,]2| \
[ECA,-F,]2 [DB,A,-F,][FDA,A,] [ECG,G,]4| \
[C-CF,-F,-][C-B,F,-F,-] [CA,F,F,]2 [EB,G,G,]4| \
[ECA,-F,-]2 [DB,A,F,]2 [E-CCA,][E-A,A,F,] [EB,B,G,]2|
[DB,F,-F,]4 [FCCF,]4| \
[GDB,G,]4 [AFDB,-]4| \
[GEB,B,]4 [E-C-B,G,]2 [EC=A,F,]2| \
[DB,-B,F,]2 [FDB,G,]2 [GE-C-B,]2 [FEC=A,]2|
[DB,F,-F,]4 [FCCF,]4| \
[GDB,G,]4 [AFDB,-]4| \
[GEB,B,]4 [E-C-B,G,]2 [EC=A,F,]2| \
[DB,B,F,]4 [ECC_G,]4|
[=E_DB,-G,]4 [F=DB,A,]4| \
[EB,B,G,-]4 [FDDG,-][EC-C-G,-] [E-CCG,-][EB,B,G,]| \
[F-ECA,-]2 [FDB,A,]2 [FDB,-G,-]2 [ECB,G,-]2| \
[ECG,-G,-][FDG,-G,] [E-_DB,G,]2 [ECA,A,]2 [F=DG,-G,-][ECG,G,]|
[E-B,G,G,]2 [EC=A,A,]2 [ECB,-_A,-][GEB,-A,-] [FDB,A,]2| \
[F-ECF,-]2 [FDB,F,]2 [E-B,B,E,]2 [ECCG,]2| \
[ECA,-F,]2 [DB,A,-F,][FDA,A,] [ECG,G,]4| \
[C-CF,-F,-][C-B,F,-F,-] [CA,F,F,]2 [EB,G,G,]4|
[ECA,-F,-]2 [DB,A,F,]2 [E-CCA,][E-A,A,F,] [EB,B,G,]2| \
[ECA,F,]2 [FECA,]2 [AFEC]2 [cAFE]2| \
[BEEB,]8|
V:7 name="Trumpet" sname="Trumpet"
%%MIDI program 56
z8| \
[BBB][BBB]/2[BBBBBB]/2 [BBB]/2[BBB]/2[BBB]/2[BBB]/2 [BBB]4| \
z8| \
[FFF][FFF]/2[FFFFFF]/2 [FFF]/2[FFF]/2[FFF]/2[FFF]/2 [BBB]4|
z8| \
[BBB][BBB]/2[BBBBBB]/2 [BBB]/2[AAA]/2[FFF]/2[DDD]/2 [EEE]4| \
z8| \
[BBB][BBB]/2[BBBBBB]/2 [BBB]/2[BBB]/2[BBB]/2[BBB]/2 [eee]4|
z8| \
[BBB][BBB]/2[BBBBBB]/2 [BBB]/2[BBB]/2[BBB]/2[BBB]/2 [BBB]4| \
z8| \
[FFF][FFF]/2[FFFFFF]/2 [FFF]/2[FFF]/2[FFF]/2[FFF]/2 [BBB]4|
z8| \
[BBB][BBB]/2[BBBBBB]/2 [BBB]/2[AAA]/2[FFF]/2[DDD]/2 [EEE]4| \
z8| \
[BBB][BBB]/2[BBBBBB]/2 [BBB]/2[BBB]/2[BBB]/2[BBB]/2 [eee]4|
[DDD]3[B,B,B,] [FFF]3[DDD]/2[FFF]/2| \
[GGG]3[DDD] [DDD]3[CCC]| \
[B,B,B,]3[CCC]/2[DDD]/2 [CCC]4| \
[DDD]3[EEE]/2[FFF]/2 [CCC]4|
[DDD]3[B,B,B,] [FFF]3[DDD]/2[FFF]/2| \
[GGG]3[DDD] [DDD]3[CCC]| \
[B,B,B,]3[CCC]/2[DDD]/2 [CCC]2 [ccc]2| \
[BBB][BBB]/2[BBBBBB]/2 [B-B-B-]2 [BBB]/2[BBB]/2z/2[BBB]/2 [BBB]/2[BBB]/2z/2[BBB]/2|
[BBB][BBB]/2[BBBBBB]/2 [BBB]/2[BBB]/2[BBB]/2[BBB]/2 [BBB]4| \
z8| \
[BBB][BBB]/2[BBBBBB]/2 [BBB]/2[BBB]/2[BBB]/2[BBB]/2 [BBB]4| \
z8|
[FFF][FFF]/2[FFFFFF]/2 [FFF]/2[FFF]/2[FFF]/2[FFF]/2 [BBB]4| \
z8| \
[BBB][BBB]/2[BBBBBB]/2 [BBB]/2[AAA]/2[FFF]/2[DDD]/2 [EEE]4| \
z8|
[BBB][BBB]/2[BBBBBB]/2 [BBB]/2[BBB]/2[BBB]/2[BBB]/2 [eee]4| \
[FEC]2 [AFE]2 [cAF]2 [ecA]2| \
[geB]8|
V:8 name="Trombone" sname="Trombone"
%%MIDI program 57
[B,-G,-E,]2 [B,G,-D,]2 [FG,-C,-][E-G,C,] [E-G,B,,][EB,G,,]| \
[EA,-F,,]2 [DA,B,,]2 [DG,-E,-]2 [C-G,-E,][CG,D,]| \
[EG,-C,][FG,-=B,,] [EG,-_B,,][_DG,E,,] [CE,A,,]2 [FG,-C,-][EG,C,]| \
[E-G,F,,-]2 [E=A,F,,]2 [E_A,-B,,-]2 [DA,B,,]2|
[CF,-=A,,]2 [B,F,_A,,]2 [B,E,G,,]2 [EG,C,]2| \
[EA,-F,,]2 [D-A,-B,,][DA,=B,,] [E-G,-C,]2 [EG,_B,,]2| \
[CF,-A,,][B,F,-F,,] [A,F,F,,]2 [EG,B,,]4| \
[EA,-F,,]2 [DA,B,,]2 [E-CE,,-]2 [EB,E,,]2|
[B,-G,-E,]2 [B,G,-D,]2 [FG,-C,-][E-G,C,] [E-G,B,,][EB,G,,]| \
[EA,-F,,]2 [DA,B,,]2 [DG,-E,-]2 [C-G,-E,][CG,D,]| \
[EG,-C,][FG,-=B,,] [EG,-_B,,][_DG,E,,] [CE,A,,]2 [FG,-C,-][EG,C,]| \
[E-G,F,,-]2 [E=A,F,,]2 [E_A,-B,,-]2 [DA,B,,]2|
[CF,-=A,,]2 [B,F,_A,,]2 [B,E,G,,]2 [EG,C,]2| \
[EA,-F,,]2 [D-A,-B,,][DA,=B,,] [E-G,-C,]2 [EG,_B,,]2| \
[CF,-A,,][B,F,-F,,] [A,F,F,,]2 [EG,B,,]4| \
[EA,-F,,]2 [DA,B,,]2 [E-CE,,-]2 [EB,E,,]2|
[DB,B,,]4 [CF,=A,,]4| \
[D-B,G,,]4 [D-A,-F,,]2 [DA,B,,]2| \
[E-G,-E,]2 [E-G,D,]2 [E-B,C,]2 [E=A,F,,]2| \
[D-B,-B,,]2 [DB,G,,]2 [E-B,C,]2 [E=A,F,,]2|
[DB,B,,]4 [CF,=A,,]4| \
[D-B,G,,]4 [D-A,-F,,]2 [DA,B,,]2| \
[E-G,-E,]2 [E-G,D,]2 [E-B,C,]2 [E=A,F,,]2| \
[DF,B,,-]4 [E_G,B,,-]4|
[=EG,B,,-]4 [FA,B,,]4| \
[B,-G,-E,]2 [B,G,-D,]2 [FG,-C,-][E-G,C,] [E-G,B,,][EB,G,,]| \
[EA,-F,,]2 [DA,B,,]2 [DG,-E,-]2 [C-G,-E,][CG,D,]| \
[EG,-C,][FG,-=B,,] [EG,-_B,,][_DG,E,,] [CE,A,,]2 [FG,-C,-][EG,C,]|
[E-G,F,,-]2 [E=A,F,,]2 [E_A,-B,,-]2 [DA,B,,]2| \
[CF,-=A,,]2 [B,F,_A,,]2 [B,E,G,,]2 [EG,C,]2| \
[EA,-F,,]2 [D-A,-B,,][DA,=B,,] [E-G,-C,]2 [EG,_B,,]2| \
[CF,-A,,][B,F,-F,,] [A,F,F,,]2 [EG,B,,]4|
[EA,-F,,]2 [DA,B,,]2 [E-CE,,-]2 [EB,E,,]2| \
[A,B,,B,,]8| \
[G,B,,E,,]8|
V:9 name="Tuba" sname="Tuba"
%%MIDI program 58
[G,-E,,]2 [G,D,,]2 [DC,,-][CC,,] [B,B,,,][G,G,,G,,,]| \
[A,F,,-F,,,-][CF,,F,,,] [B,B,,-B,,,-][A,B,,B,,,] [G,-E,,]3[G,D,,]| \
[EC,,][D=B,,,] [_D_B,,,][B,E,,] [CA,,A,,,]2 [=DC,,-][CC,,]| \
[G,F,,-][B,F,,-] [=A,F,,]2 [_A,B,,,]4|
[C=A,,-][EA,,] [D_A,,-][B,A,,] [EG,,-][B,G,,] [G,C,,]2| \
[A,F,,-][CF,,] [DB,,,][F=B,,,] [E-C,,]2 [E_B,,B,,,]2| \
[CA,,A,,,][B,G,,G,,,] [A,F,,-F,,,-][CF,,F,,,] [EB,,,-][B,B,,,-] [G,B,,,]2| \
[A,F,,-F,,,-][CF,,F,,,] [B,B,,,-][A,B,,,] [A,E,,-][F,E,,-] [G,E,,]2|
[G,-E,,]2 [G,D,,]2 [DC,,-][CC,,] [B,B,,,][G,G,,G,,,]| \
[A,F,,-F,,,-][CF,,F,,,] [B,B,,-B,,,-][A,B,,B,,,] [G,-E,,]3[G,D,,]| \
[EC,,][D=B,,,] [_D_B,,,][B,E,,] [CA,,A,,,]2 [=DC,,-][CC,,]| \
[G,F,,-][B,F,,-] [=A,F,,]2 [_A,B,,,]4|
[C=A,,-][EA,,] [D_A,,-][B,A,,] [EG,,-][B,G,,] [G,C,,]2| \
[A,F,,-][CF,,] [DB,,,][F=B,,,] [E-C,,]2 [E_B,,B,,,]2| \
[CA,,A,,,][B,G,,G,,,] [A,F,,-F,,,-][CF,,F,,,] [EB,,,-][B,B,,,-] [G,B,,,]2| \
[A,F,,-F,,,-][CF,,F,,,] [B,B,,,-][A,B,,,] [A,E,,-][F,E,,-] [G,E,,]2|
[F,-B,,]4 [F,=A,,]4| \
[G,G,,]4 [B,-F,,]2 [B,-B,,,]2| \
[B,-E,,]2 [B,D,,]2 [G,C,,]2 [F,F,,]2| \
[F,B,,,]2 [G,G,,]2 [B,C,,]2 [=A,F,,]2|
[F,-B,,]4 [F,=A,,]4| \
[G,G,,]4 [B,-F,,]2 [B,-B,,,]2| \
[B,-E,,]2 [B,D,,]2 [G,C,,]2 [F,F,,]2| \
[F,B,,,-][B,B,,,-] [DB,,,-][B,B,,,-] [_G,B,,,-][CB,,,-] [EB,,,-][CB,,,-]|
[G,B,,,-][_DB,,,-] [=EB,,,-][DB,,,-] [A,B,,,-][=DB,,,-] [FB,,,-][DB,,,]| \
[G,-E,,]2 [G,D,,]2 [DC,,-][CC,,] [B,B,,,][G,G,,G,,,]| \
[A,F,,-F,,,-][CF,,F,,,] [B,B,,-B,,,-][A,B,,B,,,] [G,-E,,]3[G,D,,]| \
[EC,,][D=B,,,] [_D_B,,,][B,E,,] [CA,,A,,,]2 [=DC,,-][CC,,]|
[G,F,,-][B,F,,-] [=A,F,,]2 [_A,B,,,]4| \
[C=A,,-][EA,,] [D_A,,-][B,A,,] [EG,,-][B,G,,] [G,C,,]2| \
[A,F,,-][CF,,] [DB,,,][F=B,,,] [E-C,,]2 [E_B,,B,,,]2| \
[CA,,A,,,][B,G,,G,,,] [A,F,,-F,,,-][CF,,F,,,] [EB,,,-][B,B,,,-] [G,B,,,]2|
[A,F,,-F,,,-][CF,,F,,,] [B,B,,,-][A,B,,,] [A,E,,-][F,E,,-] [G,E,,]2| \
[CB,,,]8| \
[B,E,,]8|

